src/components/Icon/icons/studio_active.svg

<svg width="100%" height="100%" viewBox="0 0 20 20" fill="none" xmlns="http://www.w3.org/2000/svg">
<path fill-rule="evenodd" clip-rule="evenodd" d="M5.51733 9.62059H14.4828C16.7649 9.62059 18.6208 7.76473 18.6208 5.48266C18.6208 3.20059 16.7649 1.34473 14.4828 1.34473H5.51733C3.23526 1.34473 1.37939 3.20059 1.37939 5.48266C1.37939 7.76473 3.23526 9.62059 5.51733 9.62059ZM15.8621 5.51725C15.8621 6.27902 15.2446 6.89656 14.4828 6.89656C13.7211 6.89656 13.1035 6.27902 13.1035 5.51725C13.1035 4.75548 13.7211 4.13794 14.4828 4.13794C15.2446 4.13794 15.8621 4.75548 15.8621 5.51725Z" fill="currentColor"/>
<path fill-rule="evenodd" clip-rule="evenodd" d="M5.51733 18.6206H14.4828C16.7649 18.6206 18.6208 16.7647 18.6208 14.4827C18.6208 12.2006 16.7649 10.3447 14.4828 10.3447H5.51733C3.23526 10.3447 1.37939 12.2006 1.37939 14.4827C1.37939 16.7647 3.23526 18.6206 5.51733 18.6206ZM6.89656 14.4828C6.89656 15.2446 6.27902 15.8621 5.51725 15.8621C4.75548 15.8621 4.13794 15.2446 4.13794 14.4828C4.13794 13.7211 4.75548 13.1035 5.51725 13.1035C6.27902 13.1035 6.89656 13.7211 6.89656 14.4828Z" fill="currentColor"/>
</svg>

<svg xmlns="http://www.w3.org/2000/svg" fill="none" viewBox="0 0 20 20"><path fill="currentColor" fill-rule="evenodd" d="M5.517 9.62h8.966a4.14 4.14 0 0 0 4.138-4.137 4.14 4.14 0 0 0-4.138-4.138H5.517A4.14 4.14 0 0 0 1.38 5.483 4.14 4.14 0 0 0 5.517 9.62m10.345-4.103a1.38 1.38 0 1 1-2.758 0 1.38 1.38 0 0 1 2.758 0M5.517 18.62h8.966a4.14 4.14 0 0 0 4.138-4.137 4.14 4.14 0 0 0-4.138-4.138H5.517a4.14 4.14 0 0 0-4.138 4.138 4.14 4.14 0 0 0 4.138 4.138m1.38-4.137a1.38 1.38 0 1 1-2.759 0 1.38 1.38 0 0 1 2.759 0" clip-rule="evenodd"/></svg>
